X:2869
T:Du vesle fugl
C:anon.
O:Sweden
N:The Norwegian words by "J. F." might still be copyright protected.
Z:Transcribed by Frank Nordberg - http://www.musicaviva.com
F:http://abc.musicaviva.com/tunes/sweden/du-vesle-fugl.abc
M:C
L:1/4
K:C
C|"C"GG "G"FD|"C"E2 CG|"C/E"cc "F"AA|"C"G3:|G|
"G7"GG AB|"C"c2 EG|"G"GF DF|"C"E2 z G|
"G7"GG AB|"C"c2 EG|"F"GF "G7"DE|"C"C3|]
W:
W:
W:  From Musica Viva - http://www.musicaviva.com
W:  the Internet center for free sheet music downloads.
